X:1
T:Carol of the Bells
T:Carol of the Bells
%%score { 1 | 2 }
L:1/8
M:3/4
K:C
V:1 treble nm="Piano" snm="Pno."
V:2 bass 
V:1
!pp! F2 EF D2 | F2 EF D2 | F2 EF D2 | F2 EF D2 |:!p! [Fd]2 EF [Dd]2 | [FA]2 EF [DA]2 | %6
 [F_B]2 EF [DB]2 | [FA]2 EF [DA]2 |!mp! [F_B]2 EF [DB]2 | [FA]2 EF [DA]2 | [F_B]2 EF [DB]2 | %11
 [Fd]2 EF [Dd]2 |!mf! [F_B]2 EF [DB]2 | [Fd]2 EF [Dd]2 | [F_B]2 EF [DB]2 | [FA]2 EF [DA]2 | %16
!f! [FA]2 GA [FA]2 | [FA]2 GA [FA]2 | [FA]2 GA [FA]2 | [FA]2 GA [FA]2 |!ff! [FAd]2 [FAd]d c_B | %21
 [FA]2 [FA]A GF | [G_Bd]2 [GBd]G AG | [DFA]2 [DFA][DFA] [DFA]2 |!mp! [Ad]4 EF | GA G2 F2 | %26
!p! [Ad]4 EF | GA G2 F2 |!mf! [DFA]6 | [FAd]2 EF [DFA]2 | [FAd]2 EF [DFA]2 | [FBd]2 EF [DGB]2 | %32
!mp! [FAd]2 EF [DFA]2 | [FAd]2 EF [DFA]2 | [FAd]2 EF [DFA]2 | [FAd]2 EF [DFA]2 :| [dfa]4 [egb]2 | %37
 [dfa]2 [dfa]4 | [dfa]6 |] %39
V:2
 z6 | z6 | z6 | z6 |: [A,,D,F,]4 z2 | [A,,C,F,]4 z2 | [G,,_B,,D,]4 z2 | [A,,C,F,]4 z2 | %8
 [D,G,_B,]4 z2 | [F,A,C]4 z2 | [D,G,_B,]4 z2 | [D,F,A,]4 z2 | [_B,,D,G,]4 z2 | [D,F,A,]4 z2 | %14
 [D,G,_B,]4 z2 | [D,F,A,]4 z2 | [D,F,A,]4 z2 | [D,F,B,]4 z2 | [F,A,C]4 z2 | [D,F,B,]4 z2 | %20
 [D,F,A,]2 [D,F,A,] z z2 | [D,F,A,]4 z2 | [D,F,_B,]2 [D,F,B,] z z2 | [D,F,B,]4 z2 | A,B, ^CD z2 | %25
 [F,A,D]6 | A,B, ^CD z2 | [F,A,D]6 | [F,A,D]2 E,F, [F,A,D]2 | [F,A,D]6 | [A,,D,F,]6 | %31
 [D,,G,,B,,]6 | [D,,F,,A,,-]6 | [D,,F,,A,,-]6 | [D,,F,,A,,-]6 | [D,,F,,A,,]6 :| z6 | z6 | %38
 [D,,F,,A,,]6 |] %39

